images/life-insurance.svg

<svg width="56" height="56" viewBox="0 0 56 56" fill="none" xmlns="http://www.w3.org/2000/svg">
<g clip-path="url(#clip0)">
<path d="M42.3733 6.20667L28.3733 0.0784075C28.1353 -0.0254848 27.8647 -0.0254848 27.6266 0.0784075L13.6267 6.20667C13.2867 6.35505 13.0668 6.69067 13.0667 7.06161V21.7149C13.0717 25.008 14.6542 28.0994 17.3226 30.0291L26.9985 37.0076C27.5961 37.4401 28.4039 37.4401 29.0014 37.0076L38.6773 30.03C41.3458 28.1003 42.9282 25.009 42.9333 21.7159V7.06161C42.9331 6.69067 42.7133 6.35505 42.3733 6.20667ZM41.0666 21.7159C41.0624 24.4094 39.768 26.9378 37.5853 28.5161L28 35.4293L18.4146 28.5161C16.232 26.9378 14.9376 24.4094 14.9333 21.7159V7.67201L28 1.95254L41.0666 7.67201V21.7159Z" fill="white"/>
<path d="M27.6266 4.15336L17.3599 8.64829C17.02 8.79667 16.8001 9.13229 16.7999 9.50323V21.7159C16.8028 23.81 17.8093 25.7758 19.5066 27.0023L27.4539 32.7348C27.7799 32.97 28.2199 32.97 28.5459 32.7348L36.4933 27.0023C38.1905 25.7758 39.197 23.81 39.1999 21.7159V9.50323C39.1997 9.13229 38.9799 8.79667 38.6399 8.64829L28.3733 4.15336C28.1352 4.04947 27.8646 4.04947 27.6266 4.15336ZM37.3333 10.1127V21.7159C37.3304 23.2102 36.6121 24.6128 35.4013 25.4884L27.9999 30.8271L20.5986 25.4884C19.3877 24.6128 18.6695 23.2102 18.6666 21.7159V10.1127L27.9999 6.02749L37.3333 10.1127Z" fill="white"/>
<path d="M7.73263 30.9866L5.71383 26.2695C5.28452 25.297 4.36899 24.6274 3.31212 24.5129C2.25525 24.3985 1.21761 24.8566 0.590056 25.7146C-0.0374978 26.5727 -0.159618 27.7003 0.269696 28.6728L3.92743 36.7191C4.42089 37.8084 5.10737 38.7993 5.9537 39.6442L11.7058 45.3972C11.3819 45.7406 11.201 46.1945 11.2 46.6666V54.1332C11.2 55.1642 12.0357 55.9999 13.0666 55.9999H23.3333C24.3642 55.9999 25.2 55.1642 25.2 54.1332V46.6666C25.2 45.6356 24.3642 44.7999 23.3333 44.7999V43.063C23.3619 40.8525 22.6407 38.6976 21.2874 36.9496C20.494 35.9061 19.4127 35.1174 18.1766 34.6807C16.2109 33.8548 14.403 32.6946 12.8333 31.2516C11.3762 30.0516 9.30625 29.944 7.73263 30.9866ZM23.3333 54.1332H13.0666V46.6666H23.3333V54.1332ZM19.8305 38.1154C20.9184 39.5328 21.495 41.2764 21.4666 43.063V44.7999H13.7489L7.27343 38.3244C6.58569 37.6377 6.02762 36.8323 5.6261 35.9472L1.96836 27.901C1.81227 27.5575 1.84132 27.1583 2.04549 26.8411C2.24966 26.5239 2.601 26.3322 2.97823 26.332C3.42217 26.3317 3.82337 26.5966 3.99743 27.005L6.0853 31.8742C6.63972 33.1733 7.43886 34.3536 8.43916 35.3508L12.7026 39.6152C12.937 39.8579 13.284 39.9552 13.6103 39.8698C13.9366 39.7843 14.1915 39.5295 14.2769 39.2032C14.3623 38.8768 14.265 38.5298 14.0224 38.2955L9.7589 34.0311C9.33018 33.6034 8.94471 33.1345 8.6081 32.6311C9.50441 31.9414 10.7583 31.9623 11.6312 32.6815C13.3759 34.2827 15.3924 35.5596 17.5858 36.4522C18.4795 36.7771 19.2594 37.355 19.8305 38.1154Z" fill="white"/>
<path d="M20.5333 49.4666H19.6C19.0845 49.4666 18.6666 49.8844 18.6666 50.3999C18.6666 50.9154 19.0845 51.3332 19.6 51.3332H20.5333C21.0487 51.3332 21.4666 50.9154 21.4666 50.3999C21.4666 49.8844 21.0487 49.4666 20.5333 49.4666Z" fill="white"/>
<path d="M52.0725 36.7192L55.7302 28.6729C56.18 27.6971 56.0687 26.5546 55.4391 25.684C54.8096 24.8133 53.7595 24.3496 52.6919 24.471C51.6243 24.5923 50.7051 25.2798 50.287 26.2696L48.2729 30.9689C46.6938 29.9315 44.6228 30.045 43.1666 31.2489C41.5969 32.6919 39.789 33.852 37.8233 34.678C36.5872 35.1147 35.5059 35.9033 34.7125 36.9469C33.3586 38.6956 32.6374 40.8516 32.6666 43.063V44.8C31.6357 44.8 30.7999 45.6357 30.7999 46.6666V54.1333C30.7999 55.1642 31.6357 56 32.6666 56H42.9333C43.9642 56 44.7999 55.1642 44.7999 54.1333V46.6666C44.7989 46.1946 44.618 45.7406 44.2941 45.3973L50.0462 39.6442C50.8925 38.7994 51.579 37.8084 52.0725 36.7192ZM42.9333 54.1333H32.6666V46.6666H42.9333V54.1333ZM42.251 44.8H34.5333V43.063C34.5051 41.2768 35.0817 39.5335 36.1694 38.1164C36.7392 37.3565 37.5174 36.7784 38.4094 36.4522C40.6032 35.5599 42.6201 34.283 44.365 32.6816C45.2369 31.9569 46.4943 31.9325 47.3937 32.6228C47.0561 33.1298 46.6687 33.602 46.2373 34.0321L41.9738 38.2965C41.6201 38.6627 41.6252 39.2448 41.9852 39.6049C42.3452 39.9649 42.9273 39.9699 43.2935 39.6162L47.557 35.3518C48.5573 34.3546 49.3565 33.1743 49.9109 31.8752L51.9987 27.005C52.1733 26.5972 52.5743 26.3327 53.0179 26.333C53.3952 26.3332 53.7465 26.5249 53.9507 26.8421C54.1549 27.1593 54.1839 27.5585 54.0278 27.902L50.3701 35.9482C49.9685 36.8333 49.4105 37.6387 48.7227 38.3254L42.251 44.8Z" fill="white"/>
<path d="M36.4 49.4666H35.4667C34.9512 49.4666 34.5333 49.8844 34.5333 50.3999C34.5333 50.9154 34.9512 51.3332 35.4667 51.3332H36.4C36.9155 51.3332 37.3333 50.9154 37.3333 50.3999C37.3333 49.8844 36.9155 49.4666 36.4 49.4666Z" fill="white"/>
<path d="M22.9599 19.7867C22.5476 19.4775 21.9626 19.561 21.6533 19.9734C21.344 20.3858 21.4276 20.9708 21.8399 21.2801L25.5733 24.0801C25.7348 24.2012 25.9313 24.2667 26.1333 24.2667C26.1861 24.2666 26.2389 24.2622 26.291 24.2537C26.5438 24.2103 26.7676 24.0648 26.9098 23.8514L34.3765 12.6514C34.5615 12.374 34.5845 12.0189 34.4368 11.7199C34.2891 11.4209 33.9931 11.2235 33.6603 11.2019C33.3275 11.1804 33.0085 11.338 32.8234 11.6154L25.9037 21.995L22.9599 19.7867Z" fill="#7ED95F"/>
</g>
<defs>
<clipPath id="clip0">
<rect width="56" height="56" fill="white"/>
</clipPath>
</defs>
</svg>

<svg width="56" height="56" fill="none" xmlns="http://www.w3.org/2000/svg"><g clip-path="url(#clip0)"><path d="M42.373 6.207l-14-6.129a.933.933 0 00-.746 0l-14 6.129a.933.933 0 00-.56.855v14.653a10.28 10.28 0 004.256 8.314l9.675 6.979a1.708 1.708 0 002.003 0l9.676-6.978a10.28 10.28 0 004.256-8.314V7.062a.933.933 0 00-.56-.855zm-1.306 15.509a8.408 8.408 0 01-3.482 6.8L28 35.43l-9.585-6.913a8.408 8.408 0 01-3.482-6.8V7.672L28 1.952l13.067 5.72v14.044z" fill="#fff"/><path d="M27.627 4.153L17.36 8.648a.933.933 0 00-.56.855v12.213a6.533 6.533 0 002.707 5.286l7.947 5.733a.933.933 0 001.092 0l7.947-5.733a6.533 6.533 0 002.707-5.286V9.503c0-.37-.22-.706-.56-.855L28.373 4.153a.933.933 0 00-.746 0zm9.706 5.96v11.603a4.667 4.667 0 01-1.932 3.772L28 30.828l-7.401-5.34a4.667 4.667 0 01-1.932-3.772V10.113L28 6.027l9.333 4.086zm-29.6 20.874l-2.02-4.717A2.976 2.976 0 00.27 28.672l3.657 8.046a9.913 9.913 0 002.027 2.925l5.752 5.753a1.856 1.856 0 00-.506 1.27v7.466c0 1.031.836 1.867 1.867 1.867h10.266a1.867 1.867 0 001.867-1.867v-7.466a1.867 1.867 0 00-1.867-1.867v-1.737a9.78 9.78 0 00-2.046-6.113 6.72 6.72 0 00-3.11-2.27 18.463 18.463 0 01-5.344-3.428 4.293 4.293 0 00-5.1-.265zm15.6 23.146H13.067v-7.466h10.266v7.466zm-3.502-16.018a7.92 7.92 0 011.636 4.948V44.8h-7.718l-6.476-6.476a8.072 8.072 0 01-1.647-2.377l-3.658-8.046a1.11 1.11 0 112.03-.896l2.087 4.87a11.036 11.036 0 002.354 3.476l4.264 4.264a.933.933 0 101.32-1.32l-4.264-4.264a9.205 9.205 0 01-1.15-1.4 2.427 2.427 0 013.022.05 19.9 19.9 0 005.955 3.771 4.902 4.902 0 012.245 1.663z" fill="#fff"/><path d="M20.533 49.467H19.6a.933.933 0 100 1.866h.933a.933.933 0 100-1.866zM52.072 36.72l3.658-8.047a2.975 2.975 0 10-5.443-2.403l-2.014 4.699a4.305 4.305 0 00-5.106.28 18.465 18.465 0 01-5.344 3.429 6.72 6.72 0 00-3.11 2.269 9.78 9.78 0 00-2.046 6.116V44.8a1.867 1.867 0 00-1.867 1.867v7.466c0 1.031.836 1.867 1.867 1.867h10.266a1.867 1.867 0 001.867-1.867v-7.466a1.855 1.855 0 00-.506-1.27l5.752-5.753a9.914 9.914 0 002.026-2.925zm-9.139 17.413H32.667v-7.466h10.266v7.466zm-.682-9.333h-7.718v-1.737a7.919 7.919 0 011.636-4.947 4.906 4.906 0 012.24-1.664 19.892 19.892 0 005.956-3.77 2.427 2.427 0 013.029-.06c-.338.508-.725.98-1.157 1.41l-4.263 4.265a.933.933 0 001.32 1.32l4.263-4.265c1-.997 1.8-2.178 2.354-3.477l2.088-4.87a1.108 1.108 0 011.952-.163c.204.317.233.716.077 1.06l-3.658 8.046a8.072 8.072 0 01-1.647 2.377L42.25 44.8z" fill="#fff"/><path d="M36.4 49.467h-.933a.933.933 0 100 1.866h.933a.933.933 0 100-1.866z" fill="#fff"/><path d="M22.96 19.787a.933.933 0 00-1.12 1.493l3.733 2.8a.933.933 0 001.337-.229l7.466-11.2a.934.934 0 00-1.553-1.036l-6.92 10.38-2.943-2.208z" fill="#7ED95F"/></g><defs><clipPath id="clip0"><path fill="#fff" d="M0 0h56v56H0z"/></clipPath></defs></svg>
